algo4dfm/lec04.files/triangle.svg

<?xml-stylesheet href="TE_export636271789316763912.css" type="text/css"?><svg xmlns="http://www.w3.org/2000/svg" xmlns:xlink="http://www.w3.org/1999/xlink" width="508.477" height="407.216" viewBox="-162.235 -170.916 381.358 305.412"><g><g><g stroke="#000"><g fill="#000"><g stroke-width=".4pt"><g><g stroke-linejoin="bevel"><path d="M 56.90549 85.35823 M 56.90549 85.35823 L 56.90549 113.81097 L 85.35823 113.81097 L 85.35823 85.35823 Z M 85.35823 113.81097" transform="translate(0, 134.4953 ) scale(1,-1) translate(0,170.91646 )" style="fill:none"/><path d="M -142.26372 -170.71646 M -142.26372 -170.71646 L -142.26372 -142.26372 L -113.81097 -142.26372 L -113.81097 -170.71646 Z M -113.81097 -142.26372" transform="translate(0, 134.4953 ) scale(1,-1) translate(0,170.91646 )" style="fill:none"/><path d="M 170.71646 -142.26372 M 170.71646 -142.26372 L 170.71646 -113.81097 L 199.1692 -113.81097 L 199.1692 -142.26372 Z M 199.1692 -113.81097" transform="translate(0, 134.4953 ) scale(1,-1) translate(0,170.91646 )" style="fill:none"/><g><g stroke="#CFF"><g fill="#CFF"><path d="M 56.90549 85.35823 M 56.90549 85.35823 L 56.90549 113.81097 L 85.35823 113.81097 L 85.35823 85.35823 Z M 85.35823 113.81097" transform="translate(0, 134.4953 ) scale(1,-1) translate(0,170.91646 )" style="stroke:none"/></g></g></g><g><g stroke="#CFF"><g fill="#CFF"><path d="M -142.26372 -170.71646 M -142.26372 -170.71646 L -142.26372 -142.26372 L -113.81097 -142.26372 L -113.81097 -170.71646 Z M -113.81097 -142.26372" transform="translate(0, 134.4953 ) scale(1,-1) translate(0,170.91646 )" style="stroke:none"/></g></g></g><g><g stroke="#CFF"><g fill="#CFF"><path d="M 170.71646 -142.26372 M 170.71646 -142.26372 L 170.71646 -113.81097 L 199.1692 -113.81097 L 199.1692 -142.26372 Z M 199.1692 -113.81097" transform="translate(0, 134.4953 ) scale(1,-1) translate(0,170.91646 )" style="stroke:none"/></g></g></g><path d="M 56.90549 85.35823 L -113.81097 -142.26372 L 170.71646 -142.26372 L 56.90549 85.35823" transform="translate(0, 134.4953 ) scale(1,-1) translate(0,170.91646 )" style="fill:none"/><path d="M 56.90549 113.81097 L -142.26372 -170.71646 L 199.1692 -113.81097 L 56.90549 113.81097" transform="translate(0, 134.4953 ) scale(1,-1) translate(0,170.91646 )" style="fill:none"/><g><g><g><g fill="#000"><text style="stroke:none" font-size="10" text-anchor="middle" transform="translate(0, 134.4953 ) scale(1,-1) translate(0,170.91646 ) matrix(1.0,0.0,0.0,1.0,97.06897,126.85678) scale(1,-1) translate(2.51563,0)"><tspan font-family="cmmi" font-size="10">p</tspan></text></g></g></g></g><g><g><g><g fill="#000"><text style="stroke:none" font-size="10" text-anchor="middle" transform="translate(0, 134.4953 ) scale(1,-1) translate(0,170.91646 ) matrix(1.0,0.0,0.0,1.0,-158.90154,-129.2179) scale(1,-1) translate(2.41145,0)"><tspan font-family="cmmi" font-size="10">q</tspan></text></g></g></g></g><g><g><g><g fill="#000"><text style="stroke:none" font-size="10" text-anchor="middle" transform="translate(0, 134.4953 ) scale(1,-1) translate(0,170.91646 ) matrix(1.0,0.0,0.0,1.0,211.00089,-101.73737) scale(1,-1) translate(2.39468,0)"><tspan font-family="cmmi" font-size="10">r</tspan></text></g></g></g></g></g></g></g></g></g></g></g></svg>

<?xml-stylesheet href="TE_export636271789316763912.css" type="text/css"?><svg xmlns="http://www.w3.org/2000/svg" width="508.477" height="407.216" viewBox="-162.235 -170.916 381.358 305.412"><g stroke-linejoin="bevel" stroke-width=".4pt" stroke="#000"><path d="M56.905 85.358v28.453h28.453V85.358Zm-199.169-256.074v28.452h28.453v-28.452Zm312.98 28.452v28.453h28.453v-28.453Zm28.453 28.453" transform="matrix(1 0 0 -1 0 -36.421)" style="fill:none"/><path d="M56.905 85.358v28.453h28.453V85.358Zm-199.169-256.074v28.452h28.453v-28.452Zm312.98 28.452v28.453h28.453v-28.453Zm28.453 28.453" transform="matrix(1 0 0 -1 0 -36.421)" style="stroke:none" fill="#CFF" stroke="none"/><path d="M56.905 85.358-113.81-142.264h284.527L56.906 85.358" transform="matrix(1 0 0 -1 0 -36.421)" style="fill:none"/><path d="m56.905 113.811-199.169-284.527 341.433 56.905L56.905 113.811" transform="matrix(1 0 0 -1 0 -36.421)" style="fill:none"/><text style="stroke:none" font-size="10" text-anchor="middle" transform="translate(99.585 -163.278)"><tspan font-family="cmmi">p</tspan></text><text style="stroke:none" font-size="10" text-anchor="middle" transform="translate(-156.49 92.797)"><tspan font-family="cmmi">q</tspan></text><text style="stroke:none" font-size="10" text-anchor="middle" transform="translate(213.396 65.316)"><tspan font-family="cmmi">r</tspan></text></g></svg>
